!!!COM: Tradicional
!!!OTL: Muiñeira da Cañiza
!!!OMV: pezas_muineiras_muineira-da-caniza_muineira-da-caniza-partitura.musicxml
**kern
*I"Bagpipes
*I'Bag
*clefG^2
*k[]
*M6/8
=1
!LO:TX:a:t=Allegro
*MM180
!LO:TX:a:t=[quarter]=180
4.r
4.gg
=
4.ee
4.gg
=
4.ccc
4gg
8ccc
=||
8cccL
8bb
8aaJ
8ggL
8ff
8ggJ
=
4aa
8gg
4ee
8gg
=
8ggL
8aa
8ggJ
8ffL
8ee
8ddJ
=
4ee
8cc
4gg
8ccc
=
8cccL
8bb
8aaJ
8ggL
8ff
8ggJ
=
4aa
8gg
4ee
8gg
!!linebreak:original
=
8ggL
8aa
8ggJ
8ffL
8ee
8ddJ
=
4.cc
4gg
8ccc
=||
8cccL
8bb
8aaJ
8ggL
8ff
8ggJ
=
4aa
8gg
4ee
8gg
=
8ggL
8aa
8ggJ
8ffL
8ee
8ddJ
=
4ee
8cc
4gg
8ccc
=
8cccL
8bb
8aaJ
8ggL
8ff
8ggJ
=
4aa
8gg
4ee
8gg
!!linebreak:original
=
8ggL
8aa
8ggJ
8ffL
8ee
8ddJ
=
2cc
8eeL
8ffJ
=||
4gg
8gg
8ffL
8gg
8aaJ
=
8ggL
8aa
8ggJ
8eeL
8ff
8ggJ
=
8ffL
8gg
8ffJ
8ddL
8ee
8ffJ
=
4gg
[8ee
8eeL]
8ee
8ffJ
=
4gg
8gg
8ffL
8gg
8aaJ
!!linebreak:original
=
8ggL
8aa
8ggJ
8eeL
8ff
8ggJ
=
8ffL
8gg
8ffJ
8ddL
8ee
8ffJ
=
2ee
8eeL
8ffJ
=||
4gg
8gg
8ffL
8gg
8aaJ
=
8ggL
8aa
8ggJ
8eeL
8ff
8ggJ
=
8ffL
8gg
8ffJ
8ddL
8ee
8ffJ
=
4gg
[8ee
8eeL]
8ee
8ffJ
=
4gg
8gg
8ffL
8gg
8aaJ
!!linebreak:original
=
8ggL
8aa
8ggJ
8eeL
8ff
8ggJ
=
8ffL
8gg
8ffJ
8ddL
8ee
8ffJ
=
[4.ee
4ee]
8gg
=||
4ggM
8ff
4ffM
8ee
=
4eem
8dd
4dd
8aa
=
4aaM
8gg
4ggM
8ff
=
4ffM
[8ee
4ee]
8gg
!!linebreak:original
=
4ggM
8ff
4ffM
8ee
=
4eem
8dd
8aaL
8bb
8aaJ
=
8ggL
8ee
8ggJ
8ffL
8dd
8ffJ
=
[4.ee
4ee]
8gg
=||
4ggM
8ff
4ffM
8ee
=
4eem
8dd
4dd
8aa
=
4aaM
8gg
4ggM
8ff
=
4ffM
[8ee
4ee]
8gg
!!linebreak:original
=
4ggM
8ff
4ffM
8ee
=
4eem
8dd
8aaL
8bb
8aaJ
=
8ggL
8ee
8ggJ
8ffL
8dd
8ffJ
=
[2.ee
=
4.ee]
4gg
8ccc
=||
8ggL
8ee
8ggJ
8ffL
8dd
8ffJ
=
4.ee
4.gg
!!linebreak:original
=
4.ee
4.gg
=
[2.ccc
=
8ccc]
8r
2r
==
*-
